X: 7
T:Hi-There
% Nottingham Music Database
S:via PR
M:4/4
L:1/4
K:D
AG |"D"F2 D2|d2 cd|"G"ed cd|G2 cB|"D"A2 FA|"Bm"d2 f2|"Em"e2 A3/2B/2|"A7"AG FE|
"D"F2 D2|"D7"d2 cd|"G"ed BG|"Em"E2 cB|"A7"A2 EF|GA Bc|"D"d4-|"D7"d4||
"G"dd2B|d2 dB|"D"A3/2B/2 AF|A4|"E"BE2E|"E7"e2 d2|"A7"c3/2d/2 cB|A2 FG|
"D"A2 D2|"D7"d2 fe|"G"dB "D"AF|"A7"E2 FG|"D"A2 FA|"A7"BG EC|E4|"D"D2 ||


